dist/svg/permission.svg

<!-- Generated by Trend Micro Style Portal -->
<svg version="1.1" xmlns="http://www.w3.org/2000/svg" width="16" height="16" viewBox="0 0 16 16">
  <title>permission</title>
  <path fill="rgb(34,34,34)" d="M12.38 11h-1.36v-0.010l-0.020 5h-9v-5.090c-1.14-0.29-1.99-1.31-2-2.54 0-1.22 0.84-2.24 1.96-2.55h0.020c0.23-1.66 1.64-2.93 3.35-2.93h0.020c0.28 0 0.53 0.040 0.79 0.1 0.71-1.19 1.98-1.98 3.44-1.98h0.040c1.85 0 3.4 1.26 3.84 2.98v0.030c1.48 0.46 2.54 1.81 2.54 3.41-0.020 1.98-1.63 3.58-3.62 3.58zM3 15h7v-8h-1.020v1h-5v-1h-0.98v8zM5 7h3v-1h-3v1zM6.010 11.36l-1.19-1.19 0.36-0.36 0.82 0.83 1.82-1.84 0.36 0.36-2.17 2.2zM6.514 13.841l1.146 1.129 0.35-0.36-1.142-1.124 1.122-1.126-0.36-0.35-1.119 1.123-1.141-1.123-0.36 0.35 1.146 1.129-1.146 1.151 0.36 0.35 1.144-1.149z"></path>
</svg>

<svg width="16" height="16" viewBox="0 0 16 16" fill="rgb(34, 34, 34)" xmlns="http://www.w3.org/2000/svg"><title>permission</title><path d="M12.38 11H11.02V10.99L11 15.99H2V10.9C0.86 10.61 0.01 9.59 0 8.36C0 7.14 0.84 6.12 1.96 5.81H1.98C2.21 4.15 3.62 2.88 5.33 2.88H5.35C5.63 2.88 5.88 2.92 6.14 2.98C6.85 1.79 8.12 1 9.58 1H9.62C11.47 1 13.02 2.26 13.46 3.98V4.01C14.94 4.47 16 5.82 16 7.42C15.98 9.4 14.37 11 12.38 11ZM3 15H10V7H8.98V8H3.98V7H3V15ZM5 7H8V6H5V7ZM6.01 11.36L4.82 10.17L5.18 9.81L6 10.64L7.82 8.8L8.18 9.16L6.01 11.36ZM6.514 13.841L7.66 14.97L8.01 14.61L6.868 13.486L7.99 12.36L7.63 12.01L6.511 13.133L5.37 12.01L5.01 12.36L6.156 13.489L5.01 14.64L5.37 14.99L6.514 13.841Z" fill="rgb(34, 34, 34)" fill-opacity="1.00"/></svg>
